main/svg/bambooCrosses.svg

<svg xmlns="http://www.w3.org/2000/svg" width="32" height="32"><path d="M2.004 0 6 4 2 8l2.004 2L8 6l4 4 2.004-2.004L9.996 4l4.012-4H10L8.004 2.004 6 0ZM18 32l3.996-4L18 24l2-2 4 4.004L28.004 22l2 2.004-4 3.996 4 4H26l-2-2.004L22 32Zm2-27-2.004 2.004L22.004 11l-4.008 4L20 17.004 22.004 15 24 12.996 26.004 15 28 17.004 30 15l-4-4.004 4-4-2.004-2L26 7l-2 1.996-2-2-2.004-2ZM4 15l-2 2.004L6 21l-4 4 2.004 2L6 24.996 8 23l2 2 2.004 2L14 24.996 10 21l4-4-2-2.004L9.996 17 8 19.004 5.996 17Zm0 0" style="stroke:none;fill-rule:nonzero;fill:#000;fill-opacity:1"/></svg>

<svg xmlns="http://www.w3.org/2000/svg" width="32" height="32"><path d="m2 0 4 4-4 4 2 2 4-4 4 4 2-2-4-4 4-4h-4L8 2 6 0Zm16 32 4-4-4-4 2-2 4 4 4-4 2 2-4 4 4 4h-4l-2-2-2 2Zm2-27-2 2 4 4-4 4 2 2 2-2 2-2 2 2 2 2 2-2-4-4 4-4-2-2-2 2-2 2-2-2-2-2ZM4 15l-2 2 4 4-4 4 2 2 2-2 2-2 2 2 2 2 2-2-4-4 4-4-2-2-2 2-2 2-2-2Zm0 0" style="stroke:none;fill-rule:nonzero;fill:#000;fill-opacity:1"/></svg>
